symbols/web/restart_alt/materialsymbolsrounded/restart_alt_wght500_40px.svg

<svg xmlns="http://www.w3.org/2000/svg" height="40" width="40"><path d="M16.833 34.875q-4.541-1.042-7.5-4.708-2.958-3.667-2.958-8.459 0-2.708 1.063-5.146 1.062-2.437 3.02-4.229.417-.458 1.063-.458.646 0 1.104.458.458.459.458 1.105 0 .645-.5 1.145-1.458 1.375-2.25 3.229-.791 1.855-.791 3.896 0 3.667 2.208 6.438t5.625 3.646q.542.125.896.583.354.458.354 1 0 .792-.542 1.229-.541.438-1.25.271Zm6.417 0q-.75.208-1.292-.271-.541-.479-.541-1.229 0-.542.354-1 .354-.458.896-.583 3.458-.917 5.645-3.667 2.188-2.75 2.188-6.417 0-4.333-2.979-7.354t-7.313-3.104h-.625l1.292 1.333q.417.375.417 1t-.417 1.042q-.417.417-1.042.417t-1-.417l-3.916-3.875q-.25-.25-.355-.521-.104-.271-.104-.604 0-.333.104-.604.105-.271.355-.479l3.916-3.959q.375-.375 1-.375t1.042.375q.417.459.417 1.063 0 .604-.417 1.021l-1.417 1.416h.625q5.667 0 9.625 3.98 3.959 3.979 3.959 9.645 0 4.792-2.959 8.459-2.958 3.666-7.458 4.708Z"/></svg>

<svg xmlns="http://www.w3.org/2000/svg" height="40" width="40"><path d="M16.833 34.875Q12.292 33.833 9.333 30.167Q6.375 26.5 6.375 21.708Q6.375 19 7.438 16.562Q8.5 14.125 10.458 12.333Q10.875 11.875 11.521 11.875Q12.167 11.875 12.625 12.333Q13.083 12.792 13.083 13.438Q13.083 14.083 12.583 14.583Q11.125 15.958 10.333 17.812Q9.542 19.667 9.542 21.708Q9.542 25.375 11.75 28.146Q13.958 30.917 17.375 31.792Q17.917 31.917 18.271 32.375Q18.625 32.833 18.625 33.375Q18.625 34.167 18.083 34.604Q17.542 35.042 16.833 34.875ZM23.25 34.875Q22.5 35.083 21.958 34.604Q21.417 34.125 21.417 33.375Q21.417 32.833 21.771 32.375Q22.125 31.917 22.667 31.792Q26.125 30.875 28.312 28.125Q30.5 25.375 30.5 21.708Q30.5 17.375 27.521 14.354Q24.542 11.333 20.208 11.25H19.583L20.875 12.583Q21.292 12.958 21.292 13.583Q21.292 14.208 20.875 14.625Q20.458 15.042 19.833 15.042Q19.208 15.042 18.833 14.625L14.917 10.75Q14.667 10.5 14.562 10.229Q14.458 9.958 14.458 9.625Q14.458 9.292 14.562 9.021Q14.667 8.75 14.917 8.542L18.833 4.583Q19.208 4.208 19.833 4.208Q20.458 4.208 20.875 4.583Q21.292 5.042 21.292 5.646Q21.292 6.25 20.875 6.667L19.458 8.083H20.083Q25.75 8.083 29.708 12.063Q33.667 16.042 33.667 21.708Q33.667 26.5 30.708 30.167Q27.75 33.833 23.25 34.875Z"/></svg>
